X:49
T:Még a búza ki sem hányta a fejét
M:4/4
L:1/4
K:D
DEFD | A/F/ G/F/ | E<D D z |
A>G F<D | G/A/ B/G/ | F<E E z |
AAFD | G/A/ B/G/ | F/E/B/B/ A z |
D E F<D | A/F/ G/F/ | E<D D z |

